src/icon/entity/calendar/icon_calendar_m_black.svg

<svg width="24px" height="24px" viewBox="0 0 24 24" version="1.1" xmlns="http://www.w3.org/2000/svg"><g stroke="none" stroke-width="1" fill="none" fill-rule="evenodd"><rect x="0" y="0" width="24" height="24"/><path d="M7,1 C6.44771525,1 6,1.44771525 6,2 L6,3.5 L4,3.5 C2.897,3.5 2,4.397 2,5.5 L2,20.5 C2,21.603 2.897,22.5 4,22.5 L20,22.5 C21.103,22.5 22,21.603 22,20.5 L22,5.5 C22,4.397 21.103,3.5 20,3.5 L18,3.5 L18,2 C18,1.44771525 17.5522847,1 17,1 C16.4477153,1 16,1.44771525 16,2 L16,3.5 L8,3.5 L8,2 C8,1.44771525 7.55228475,1 7,1 Z M16,4.5 L16,5 C16,5.55228475 16.4477153,6 17,6 C17.5522847,6 18,5.55228475 18,5 L18,4.5 L20,4.5 C20.5522847,4.5 21,4.94771525 21,5.5 L21,20.5 C21,21.0522847 20.5522847,21.5 20,21.5 L4,21.5 C3.449,21.5 3,21.052 3,20.5 L3,5.5 C3,4.948 3.449,4.5 4,4.5 L6,4.5 L6,5 C6,5.55228475 6.44771525,6 7,6 C7.55228475,6 8,5.55228475 8,5 L8,4.5 L16,4.5 Z" fill-opacity="0.9" fill="#0B1F35" fill-rule="nonzero"/><path d="M5,9 L9,9 L9,11 L5,11 L5,9 Z M10,9 L14,9 L14,11 L10,11 L10,9 Z M5,14 L9,14 L9,16 L5,16 L5,14 Z M10,14 L14,14 L14,16 L10,16 L10,14 Z M15,9 L19,9 L19,11 L15,11 L15,9 Z" fill-opacity="0.9" fill="#0B1F35" fill-rule="nonzero"/></g></svg>

<svg width="24" height="24" viewBox="0 0 24 24" xmlns="http://www.w3.org/2000/svg"><g fill="none" fill-rule="evenodd"><path d="M0 0h24v24H0z"/><path d="M7 1a1 1 0 0 0-1 1v1.5H4c-1.103 0-2 .897-2 2v15c0 1.103.897 2 2 2h16c1.103 0 2-.897 2-2v-15c0-1.103-.897-2-2-2h-2V2a1 1 0 0 0-2 0v1.5H8V2a1 1 0 0 0-1-1zm9 3.5V5a1 1 0 0 0 2 0v-.5h2a1 1 0 0 1 1 1v15a1 1 0 0 1-1 1H4c-.551 0-1-.448-1-1v-15c0-.552.449-1 1-1h2V5a1 1 0 1 0 2 0v-.5h8z" fill-opacity=".9" fill="#0B1F35" fill-rule="nonzero"/><path d="M5 9h4v2H5V9zm5 0h4v2h-4V9zm-5 5h4v2H5v-2zm5 0h4v2h-4v-2zm5-5h4v2h-4V9z" fill-opacity=".9" fill="#0B1F35" fill-rule="nonzero"/></g></svg>
